findly-builder/apps/searchassist/src/assets/icons/resultTemplate/skelton-small.svg

<svg width="30" height="27" viewBox="0 0 30 27" fill="none" xmlns="http://www.w3.org/2000/svg">
<path fill-rule="evenodd" clip-rule="evenodd" d="M3.21999 0.375C1.49897 0.375 0.0878906 1.85327 0.0878906 3.65625V23.3438C0.0878906 25.1467 1.49897 26.625 3.21999 26.625H26.1887C27.9098 26.625 29.3208 25.1467 29.3208 23.3438V3.65625C29.3208 1.85327 27.9098 0.375 26.1887 0.375H3.21999ZM3.21999 2.5625H26.1887C26.776 2.5625 27.2328 3.04102 27.2328 3.65625V19.5498L20.2994 11.8814C20.0966 11.6571 19.7426 11.6627 19.5471 11.8934L15.8381 16.2686L9.93249 9.74467C9.72963 9.52057 9.37585 9.52633 9.1804 9.75692L2.17596 18.0203V3.65625C2.17596 3.04102 2.63272 2.5625 3.21999 2.5625ZM20.9686 4.75C19.8185 4.75 18.8805 5.73267 18.8805 6.9375C18.8805 8.14233 19.8185 9.125 20.9686 9.125C22.1186 9.125 23.0566 8.14233 23.0566 6.9375C23.0566 5.73267 22.1186 4.75 20.9686 4.75ZM9.59839 12.5515L20.3568 24.4375H3.21999C2.63272 24.4375 2.17596 23.959 2.17596 23.3438V21.3186L9.59839 12.5515ZM19.9572 14.6963L27.2328 22.7285V23.3438C27.2328 23.959 26.776 24.4375 26.1887 24.4375H23.2279L17.2818 17.8579L19.9572 14.6963Z" fill="#BDC1C6"/>
</svg>

<svg width="30" height="27" fill="none" xmlns="http://www.w3.org/2000/svg"><path fill-rule="evenodd" clip-rule="evenodd" d="M3.22.375C1.499.375.088 1.853.088 3.656v19.688c0 1.803 1.411 3.281 3.132 3.281h22.969c1.72 0 3.132-1.478 3.132-3.281V3.656c0-1.803-1.411-3.281-3.132-3.281H3.22Zm0 2.188h22.969c.587 0 1.044.478 1.044 1.093V19.55l-6.934-7.669a.5.5 0 0 0-.752.012l-3.709 4.376-5.906-6.524a.5.5 0 0 0-.752.012L2.176 18.02V3.656c0-.615.457-1.094 1.044-1.094ZM20.969 4.75c-1.15 0-2.088.983-2.088 2.188 0 1.204.938 2.187 2.088 2.187 1.15 0 2.088-.983 2.088-2.188 0-1.204-.938-2.187-2.088-2.187Zm-11.37 7.802 10.758 11.886H3.22c-.587 0-1.044-.479-1.044-1.094v-2.025l7.422-8.767Zm10.358 2.144 7.276 8.033v.615c0 .615-.457 1.093-1.044 1.093h-2.961l-5.946-6.58 2.675-3.16Z" fill="#BDC1C6"/></svg>
